svg/color/klv.svg

<?xml version="1.0" encoding="UTF-8" ?>
<!DOCTYPE svg PUBLIC "-//W3C//DTD SVG 1.1//EN" "http://www.w3.org/Graphics/SVG/1.1/DTD/svg11.dtd">
<svg width="250pt" height="250pt" viewBox="0 0 250 250" version="1.1" xmlns="http://www.w3.org/2000/svg">
<g id="#ffffffff">
<path fill="#ffffff" opacity="1.00" d=" M 0.00 0.00 L 250.00 0.00 L 250.00 250.00 L 0.00 250.00 L 0.00 0.00 M 53.99 56.99 C 54.03 102.32 53.96 147.65 54.02 192.98 L 54.99 193.00 L 55.02 193.99 C 55.51 194.25 56.50 194.77 56.99 195.02 C 102.66 194.94 148.33 195.07 194.00 194.97 L 193.98 193.99 L 194.93 193.97 C 195.17 174.32 194.88 154.65 195.03 135.00 C 194.67 133.68 196.10 121.82 193.25 125.61 C 183.54 134.80 173.90 144.15 164.94 154.07 C 162.73 155.09 161.18 157.28 159.70 159.17 C 153.07 152.95 147.06 145.72 140.03 140.14 C 134.04 132.85 126.94 126.30 119.93 119.95 C 117.26 115.66 112.69 112.48 109.02 108.96 C 105.93 104.66 101.63 101.07 97.57 97.66 C 97.72 96.64 96.33 95.37 95.34 95.45 C 85.63 84.41 74.80 74.12 64.03 64.12 C 61.89 60.75 58.73 58.20 55.75 55.61 C 56.03 53.72 52.89 55.43 53.99 56.99 Z" />
</g>
<g id="#ffd6f7ff">
<path fill="#ffd6f7" opacity="1.00" d=" M 53.99 56.99 C 52.89 55.43 56.03 53.72 55.75 55.61 C 54.00 101.34 55.51 147.21 54.99 193.00 L 54.02 192.98 C 53.96 147.65 54.03 102.32 53.99 56.99 Z" />
</g>
<g id="#cc6ca4ff">
<path fill="#cc6ca4" opacity="1.00" d=" M 54.99 193.00 C 55.51 147.21 54.00 101.34 55.75 55.61 C 58.73 58.20 61.89 60.75 64.03 64.12 C 61.20 62.07 58.06 60.07 56.24 64.38 C 55.75 85.33 55.92 106.31 56.22 127.27 C 56.11 131.11 56.06 134.95 56.08 138.80 C 56.01 149.27 55.97 159.73 55.97 170.20 C 57.31 177.56 53.35 186.76 57.64 193.29 L 58.17 193.99 C 57.38 193.99 55.81 193.99 55.02 193.99 L 54.99 193.00 Z" />
</g>
<g id="#fa489eff">
<path fill="#fa489e" opacity="1.00" d=" M 56.24 64.38 C 58.06 60.07 61.20 62.07 64.03 64.12 C 74.80 74.12 85.63 84.41 95.34 95.45 C 90.46 96.03 87.65 90.29 83.12 89.08 C 79.81 90.94 83.37 95.45 79.87 96.92 C 71.84 101.05 67.28 111.77 58.93 114.15 C 57.78 118.46 57.31 122.94 56.22 127.27 C 55.92 106.31 55.75 85.33 56.24 64.38 Z" />
</g>
<g id="#f944b1ff">
<path fill="#f944b1" opacity="1.00" d=" M 83.12 89.08 C 87.65 90.29 90.46 96.03 95.34 95.45 C 96.33 95.37 97.72 96.64 97.57 97.66 C 96.34 100.92 100.91 104.04 97.96 106.99 C 86.56 119.24 73.99 130.42 62.66 142.79 C 58.12 145.72 57.45 141.25 56.08 138.80 C 56.06 134.95 56.11 131.11 56.22 127.27 C 57.31 122.94 57.78 118.46 58.93 114.15 C 67.28 111.77 71.84 101.05 79.87 96.92 C 83.37 95.45 79.81 90.94 83.12 89.08 Z" />
</g>
<g id="#eb45c0ff">
<path fill="#eb45c0" opacity="1.00" d=" M 97.96 106.99 C 100.91 104.04 96.34 100.92 97.57 97.66 C 101.63 101.07 105.93 104.66 109.02 108.96 C 111.99 116.20 104.58 121.58 101.19 127.20 C 88.13 138.81 76.16 151.45 63.69 163.68 C 61.54 166.08 60.03 171.44 55.97 170.20 C 55.97 159.73 56.01 149.27 56.08 138.80 C 57.45 141.25 58.12 145.72 62.66 142.79 C 73.99 130.42 86.56 119.24 97.96 106.99 Z" />
</g>
<g id="#e044ccff">
<path fill="#e044cc" opacity="1.00" d=" M 109.02 108.96 C 112.69 112.48 117.26 115.66 119.93 119.95 C 124.09 132.92 106.45 136.77 101.72 146.85 C 87.02 158.83 75.56 174.97 60.24 186.19 C 57.79 187.69 59.68 190.88 59.92 193.08 C 59.35 193.13 58.21 193.24 57.64 193.29 C 53.35 186.76 57.31 177.56 55.97 170.20 C 60.03 171.44 61.54 166.08 63.69 163.68 C 76.16 151.45 88.13 138.81 101.19 127.20 C 104.58 121.58 111.99 116.20 109.02 108.96 Z" />
</g>
<g id="#d545d7ff">
<path fill="#d545d7" opacity="1.00" d=" M 119.93 119.95 C 126.94 126.30 134.04 132.85 140.03 140.14 L 139.15 139.94 C 136.45 138.61 134.10 136.15 131.21 135.44 C 123.75 140.50 118.75 148.27 111.31 153.34 C 105.95 157.44 104.13 164.81 98.11 168.10 C 90.02 172.60 87.50 183.20 78.46 186.34 C 74.05 187.35 77.51 191.00 79.15 192.96 C 72.74 192.99 66.32 192.93 59.92 193.08 C 59.68 190.88 57.79 187.69 60.24 186.19 C 75.56 174.97 87.02 158.83 101.72 146.85 C 106.45 136.77 124.09 132.92 119.93 119.95 Z" />
</g>
<g id="#edb5e3ff">
<path fill="#edb5e3" opacity="1.00" d=" M 193.25 125.61 C 196.10 121.82 194.67 133.68 195.03 135.00 C 194.88 154.65 195.17 174.32 194.93 193.97 L 193.98 193.99 C 194.00 183.33 194.03 172.67 193.99 162.00 C 193.81 149.88 194.68 137.69 193.25 125.61 Z" />
</g>
<g id="#db67a2ff">
<path fill="#db67a2" opacity="1.00" d=" M 164.94 154.07 C 173.90 144.15 183.54 134.80 193.25 125.61 C 194.68 137.69 193.81 149.88 193.99 162.00 L 193.02 161.98 C 193.00 158.65 193.02 155.35 192.98 152.03 C 192.09 145.16 194.91 137.36 191.91 130.93 C 183.29 136.75 176.68 145.06 168.96 151.99 C 168.12 152.56 167.28 153.13 166.45 153.70 C 166.07 153.80 165.32 153.98 164.94 154.07 Z" />
</g>
<g id="#f846a5ff">
<path fill="#f846a5" opacity="1.00" d=" M 168.96 151.99 C 176.68 145.06 183.29 136.75 191.91 130.93 C 194.91 137.36 192.09 145.16 192.98 152.03 C 184.97 152.22 176.95 151.02 168.96 151.99 Z" />
</g>
<g id="#cc42e2ff">
<path fill="#cc42e2" opacity="1.00" d=" M 131.21 135.44 C 134.10 136.15 136.45 138.61 139.15 139.94 C 140.49 144.30 138.55 149.21 134.69 151.62 C 121.65 162.24 112.67 177.41 98.06 186.05 C 96.08 187.92 95.07 190.59 93.77 192.93 C 88.89 192.96 84.02 193.07 79.15 192.96 C 77.51 191.00 74.05 187.35 78.46 186.34 C 87.50 183.20 90.02 172.60 98.11 168.10 C 104.13 164.81 105.95 157.44 111.31 153.34 C 118.75 148.27 123.75 140.50 131.21 135.44 Z" />
</g>
<g id="#be44eaff">
<path fill="#be44ea" opacity="1.00" d=" M 139.15 139.94 L 140.03 140.14 C 147.06 145.72 153.07 152.95 159.70 159.17 C 166.34 166.23 172.78 174.63 182.12 178.01 C 185.75 179.96 189.31 177.08 192.98 176.79 C 191.67 181.17 195.92 191.23 190.15 192.98 C 190.98 188.17 185.78 186.77 182.81 184.17 C 172.05 175.29 163.08 164.30 151.85 156.00 C 147.01 155.98 143.16 159.46 141.86 163.93 C 133.37 171.65 125.18 179.79 117.29 188.22 C 114.16 190.97 118.47 191.63 120.21 192.88 C 111.40 192.96 102.58 193.09 93.77 192.93 C 95.07 190.59 96.08 187.92 98.06 186.05 C 112.67 177.41 121.65 162.24 134.69 151.62 C 138.55 149.21 140.49 144.30 139.15 139.94 Z" />
</g>
<g id="#ed44bdff">
<path fill="#ed44bd" opacity="1.00" d=" M 168.96 151.99 C 176.95 151.02 184.97 152.22 192.98 152.03 C 193.02 155.35 193.00 158.65 193.02 161.98 C 193.01 162.47 192.99 163.46 192.97 163.95 C 186.35 164.89 179.65 164.95 173.02 163.97 C 170.82 160.68 166.33 158.08 166.45 153.70 C 167.28 153.13 168.12 152.56 168.96 151.99 Z" />
</g>
<g id="#c23db7ff">
<path fill="#c23db7" opacity="1.00" d=" M 159.70 159.17 C 161.18 157.28 162.73 155.09 164.94 154.07 C 165.32 153.98 166.07 153.80 166.45 153.70 C 166.33 158.08 170.82 160.68 173.02 163.97 C 176.21 168.54 179.16 173.28 182.12 178.01 C 172.78 174.63 166.34 166.23 159.70 159.17 Z" />
</g>
<g id="#b342f8ff">
<path fill="#b342f8" opacity="1.00" d=" M 141.86 163.93 C 143.16 159.46 147.01 155.98 151.85 156.00 C 163.08 164.30 172.05 175.29 182.81 184.17 C 185.78 186.77 190.98 188.17 190.15 192.98 C 166.84 192.99 143.52 193.13 120.21 192.88 C 118.47 191.63 114.16 190.97 117.29 188.22 C 125.18 179.79 133.37 171.65 141.86 163.93 Z" />
</g>
<g id="#a34fc0ff">
<path fill="#a34fc0" opacity="1.00" d=" M 193.02 161.98 L 193.99 162.00 C 194.03 172.67 194.00 183.33 193.98 193.99 C 148.71 194.00 103.44 194.01 58.17 193.99 L 57.64 193.29 C 58.21 193.24 59.35 193.13 59.92 193.08 C 66.32 192.93 72.74 192.99 79.15 192.96 C 84.02 193.07 88.89 192.96 93.77 192.93 C 102.58 193.09 111.40 192.96 120.21 192.88 C 143.52 193.13 166.84 192.99 190.15 192.98 C 195.92 191.23 191.67 181.17 192.98 176.79 C 192.99 172.51 192.99 168.23 192.97 163.95 C 192.99 163.46 193.01 162.47 193.02 161.98 Z" />
</g>
<g id="#d844d1ff">
<path fill="#d844d1" opacity="1.00" d=" M 173.02 163.97 C 179.65 164.95 186.35 164.89 192.97 163.95 C 192.99 168.23 192.99 172.51 192.98 176.79 C 189.31 177.08 185.75 179.96 182.12 178.01 C 179.16 173.28 176.21 168.54 173.02 163.97 Z" />
</g>
<g id="#e2b6f2ff">
<path fill="#e2b6f2" opacity="1.00" d=" M 55.02 193.99 C 55.81 193.99 57.38 193.99 58.17 193.99 C 103.44 194.01 148.71 194.00 193.98 193.99 L 194.00 194.97 C 148.33 195.07 102.66 194.94 56.99 195.02 C 56.50 194.77 55.51 194.25 55.02 193.99 Z" />
</g>
</svg>

<?xml version="1.0" encoding="utf-8"?>
<!-- Generator: Adobe Illustrator 26.0.3, SVG Export Plug-In . SVG Version: 6.00 Build 0)  -->
<svg version="1.1" id="Layer_1" xmlns="http://www.w3.org/2000/svg" xmlns:xlink="http://www.w3.org/1999/xlink" x="0px" y="0px"
	 viewBox="0 0 250 250" style="enable-background:new 0 0 250 250;" xml:space="preserve">
<style type="text/css">
	.st0{fill:#FFD6F7;}
	.st1{fill:#CC6CA4;}
	.st2{fill:#FA489E;}
	.st3{fill:#F944B1;}
	.st4{fill:#EB45C0;}
	.st5{fill:#E044CC;}
	.st6{fill:#D545D7;}
	.st7{fill:#EDB5E3;}
	.st8{fill:#DB67A2;}
	.st9{fill:#F846A5;}
	.st10{fill:#CC42E2;}
	.st11{fill:#BE44EA;}
	.st12{fill:#ED44BD;}
	.st13{fill:#C23DB7;}
	.st14{fill:#B342F8;}
	.st15{fill:#A34FC0;}
	.st16{fill:#D844D1;}
	.st17{fill:#E2B6F2;}
</style>
<g id="_x23_ffd6f7ff">
	<path class="st0" d="M54,57c-1.1-1.6,2-3.3,1.8-1.4C54,101.3,55.5,147.2,55,193l-1,0C54,147.6,54,102.3,54,57z"/>
</g>
<g id="_x23_cc6ca4ff">
	<path class="st1" d="M55,193c0.5-45.8-1-91.7,0.8-137.4c3,2.6,6.1,5.1,8.3,8.5c-2.8-2.1-6-4.1-7.8,0.3c-0.5,21-0.3,41.9,0,62.9
		c-0.1,3.8-0.2,7.7-0.1,11.5C56,149.3,56,159.7,56,170.2c1.3,7.4-2.6,16.6,1.7,23.1l0.5,0.7c-0.8,0-2.4,0-3.1,0L55,193z"/>
</g>
<g id="_x23_fa489eff">
	<path class="st2" d="M56.2,64.4c1.8-4.3,5-2.3,7.8-0.3c10.8,10,21.6,20.3,31.3,31.3c-4.9,0.6-7.7-5.2-12.2-6.4
		c-3.3,1.9,0.2,6.4-3.2,7.8c-8,4.1-12.6,14.8-20.9,17.2c-1.2,4.3-1.6,8.8-2.7,13.1C55.9,106.3,55.8,85.3,56.2,64.4z"/>
</g>
<g id="_x23_f944b1ff">
	<path class="st3" d="M83.1,89.1c4.5,1.2,7.3,6.9,12.2,6.4c1-0.1,2.4,1.2,2.2,2.2c-1.2,3.3,3.3,6.4,0.4,9.3
		c-11.4,12.2-24,23.4-35.3,35.8c-4.5,2.9-5.2-1.5-6.6-4c0-3.9,0-7.7,0.1-11.5c1.1-4.3,1.6-8.8,2.7-13.1c8.3-2.4,12.9-13.1,20.9-17.2
		C83.4,95.4,79.8,90.9,83.1,89.1z"/>
</g>
<g id="_x23_eb45c0ff">
	<path class="st4" d="M98,107c3-2.9-1.6-6.1-0.4-9.3c4.1,3.4,8.4,7,11.4,11.3c3,7.2-4.4,12.6-7.8,18.2c-13.1,11.6-25,24.2-37.5,36.5
		c-2.1,2.4-3.7,7.8-7.7,6.5c0-10.5,0-20.9,0.1-31.4c1.4,2.4,2,6.9,6.6,4C74,130.4,86.6,119.2,98,107z"/>
</g>
<g id="_x23_e044ccff">
	<path class="st5" d="M109,109c3.7,3.5,8.2,6.7,10.9,11c4.2,13-13.5,16.8-18.2,26.9c-14.7,12-26.2,28.1-41.5,39.3
		c-2.5,1.5-0.6,4.7-0.3,6.9c-0.6,0.1-1.7,0.2-2.3,0.2c-4.3-6.5-0.3-15.7-1.7-23.1c4.1,1.2,5.6-4.1,7.7-6.5
		c12.5-12.2,24.4-24.9,37.5-36.5C104.6,121.6,112,116.2,109,109z"/>
</g>
<g id="_x23_d545d7ff">
	<path class="st6" d="M119.9,119.9c7,6.4,14.1,12.9,20.1,20.2l-0.9-0.2c-2.7-1.3-5-3.8-7.9-4.5c-7.5,5.1-12.5,12.8-19.9,17.9
		c-5.4,4.1-7.2,11.5-13.2,14.8c-8.1,4.5-10.6,15.1-19.7,18.2c-4.4,1-0.9,4.7,0.7,6.6c-6.4,0-12.8,0-19.2,0.1
		c-0.2-2.2-2.1-5.4,0.3-6.9c15.3-11.2,26.8-27.4,41.5-39.3C106.4,136.8,124.1,132.9,119.9,119.9z"/>
</g>
<g id="_x23_edb5e3ff">
	<path class="st7" d="M193.2,125.6c2.9-3.8,1.4,8.1,1.8,9.4c-0.1,19.6,0.1,39.3-0.1,59l-0.9,0c0-10.7,0.1-21.3,0-32
		C193.8,149.9,194.7,137.7,193.2,125.6z"/>
</g>
<g id="_x23_db67a2ff">
	<path class="st8" d="M164.9,154.1c9-9.9,18.6-19.3,28.3-28.5c1.4,12.1,0.6,24.3,0.7,36.4l-1,0c0-3.3,0-6.6,0-9.9
		c-0.9-6.9,1.9-14.7-1.1-21.1c-8.6,5.8-15.2,14.1-22.9,21.1c-0.8,0.6-1.7,1.1-2.5,1.7C166.1,153.8,165.3,154,164.9,154.1z"/>
</g>
<g id="_x23_f846a5ff">
	<path class="st9" d="M169,152c7.7-6.9,14.3-15.2,22.9-21.1c3,6.4,0.2,14.2,1.1,21.1C185,152.2,176.9,151,169,152z"/>
</g>
<g id="_x23_cc42e2ff">
	<path class="st10" d="M131.2,135.4c2.9,0.7,5.2,3.2,7.9,4.5c1.3,4.4-0.6,9.3-4.5,11.7c-13,10.6-22,25.8-36.6,34.4
		c-2,1.9-3,4.5-4.3,6.9c-4.9,0-9.8,0.1-14.6,0c-1.6-2-5.1-5.6-0.7-6.6c9-3.1,11.6-13.7,19.7-18.2c6-3.3,7.8-10.7,13.2-14.8
		C118.8,148.3,123.8,140.5,131.2,135.4z"/>
</g>
<g id="_x23_be44eaff">
	<path class="st11" d="M139.1,139.9l0.9,0.2c7,5.6,13,12.8,19.7,19c6.6,7.1,13.1,15.5,22.4,18.8c3.6,2,7.2-0.9,10.9-1.2
		c-1.3,4.4,2.9,14.4-2.8,16.2c0.8-4.8-4.4-6.2-7.3-8.8c-10.8-8.9-19.7-19.9-31-28.2c-4.8,0-8.7,3.5-10,7.9
		c-8.5,7.7-16.7,15.9-24.6,24.3c-3.1,2.8,1.2,3.4,2.9,4.7c-8.8,0.1-17.6,0.2-26.4,0c1.3-2.3,2.3-5,4.3-6.9
		c14.6-8.6,23.6-23.8,36.6-34.4C138.6,149.2,140.5,144.3,139.1,139.9z"/>
</g>
<g id="_x23_ed44bdff">
	<path class="st12" d="M169,152c8-1,16,0.2,24,0c0,3.3,0,6.6,0,9.9c0,0.5,0,1.5-0.1,2c-6.6,0.9-13.3,1-19.9,0
		c-2.2-3.3-6.7-5.9-6.6-10.3C167.3,153.1,168.1,152.6,169,152z"/>
</g>
<g id="_x23_c23db7ff">
	<path class="st13" d="M159.7,159.2c1.5-1.9,3-4.1,5.2-5.1c0.4-0.1,1.1-0.3,1.5-0.4c-0.1,4.4,4.4,7,6.6,10.3c3.2,4.6,6.1,9.3,9.1,14
		C172.8,174.6,166.3,166.2,159.7,159.2z"/>
</g>
<g id="_x23_b342f8ff">
	<path class="st14" d="M141.9,163.9c1.3-4.5,5.1-7.9,10-7.9c11.2,8.3,20.2,19.3,31,28.2c3,2.6,8.2,4,7.3,8.8
		c-23.3,0-46.6,0.2-69.9-0.1c-1.7-1.2-6-1.9-2.9-4.7C125.2,179.8,133.4,171.6,141.9,163.9z"/>
</g>
<g id="_x23_a34fc0ff">
	<path class="st15" d="M193,162l1,0c0,10.7,0,21.3,0,32c-45.3,0-90.5,0-135.8,0l-0.5-0.7c0.6,0,1.7-0.2,2.3-0.2
		c6.4-0.2,12.8-0.1,19.2-0.1c4.9,0.1,9.7,0,14.6,0c8.8,0.2,17.6,0,26.4,0c23.3,0.2,46.6,0.1,69.9,0.1c5.8-1.8,1.5-11.8,2.8-16.2
		c0-4.3,0-8.6,0-12.8C193,163.5,193,162.5,193,162z"/>
</g>
<g id="_x23_d844d1ff">
	<path class="st16" d="M173,164c6.6,1,13.3,0.9,19.9,0c0,4.3,0,8.6,0,12.8c-3.7,0.3-7.2,3.2-10.9,1.2
		C179.2,173.3,176.2,168.5,173,164z"/>
</g>
<g id="_x23_e2b6f2ff">
	<path class="st17" d="M55,194c0.8,0,2.4,0,3.1,0c45.3,0,90.5,0,135.8,0l0,1c-45.7,0.1-91.3,0-137,0.1C56.5,194.8,55.5,194.2,55,194
		z"/>
</g>
</svg>
